X:8291
T:Joys of Wedlock,The. GS.107
M:6/8
L:1/8
Q:120
S:George Spencer m/s, Leeds,1831
R:Jig
O:England
A:Leeds
H:1831
Z:vmp.Cherri Graebe
K:G major
"no key sig. in ms"D | DGG GBd | gfe d2 c | Bdg dBG | ABA A2 D | DGG GBd
 |! gfe d
2 c | BdB cAF | GAG G2 :||:
c | Bdg dBG | Bdg d2c |! Bdg dBG | ABA A2 d | Bdg dBG | Bdg d2 c | BdB c
AF | GAG G2 :||
